static/img/bitsong-icon.svg

<svg width="50" height="50" viewBox="0 0 50 50" fill="none" xmlns="http://www.w3.org/2000/svg">
<g clip-path="url(#clip0_891_1217)">
<path d="M24.953 0.0803223C23.0768 0.0803223 21.2008 0.269367 19.3246 0.741981C19.3246 0.836505 19.3246 0.931027 19.3246 1.02555V31.7453C19.3246 32.4071 18.7617 32.8796 18.1989 32.8796H15.9475C15.4784 32.8796 15.1032 32.5017 15.1032 32.029V2.0653C6.19137 5.8462 0 14.7313 0 24.9397C0 38.7401 11.1632 49.8938 25.047 49.8938C38.9307 49.8938 50 38.7401 50 25.0342C50 11.3285 38.7429 0.0803223 24.953 0.0803223ZM24.4841 35.3373C24.4841 35.9043 24.015 36.377 23.4521 36.377H21.2008C20.6379 36.377 20.1689 35.9043 20.1689 35.3373V19.552C20.1689 18.9848 20.6379 18.5122 21.2008 18.5122H23.4521C24.015 18.5122 24.4841 18.9848 24.4841 19.552V35.3373ZM29.5498 36.8497C29.5498 37.4167 29.0807 37.8895 28.5178 37.8895H26.2665C25.7036 37.8895 25.2346 37.4167 25.2346 36.8497V18.0396C25.2346 17.4725 25.7036 16.9999 26.2665 16.9999H28.5178C29.0807 16.9999 29.5498 17.4725 29.5498 18.0396V36.8497ZM34.6155 34.0139C34.6155 34.5812 34.1464 35.0536 33.5835 35.0536H31.3322C30.7693 35.0536 30.3002 34.5812 30.3002 34.0139V21.0643C30.3002 20.4972 30.7693 20.0246 31.3322 20.0246H33.5835C34.1464 20.0246 34.6155 20.4972 34.6155 21.0643V34.0139Z" fill="#FF005C"/>
<path d="M24.953 0.0803223C23.0768 0.0803223 21.2008 0.269367 19.3246 0.741981C19.3246 0.836505 19.3246 0.931027 19.3246 1.02555V31.7453C19.3246 32.4071 18.7617 32.8796 18.1989 32.8796H15.9475C15.4784 32.8796 15.1032 32.5017 15.1032 32.029V2.0653C6.19137 5.8462 0 14.7313 0 24.9397C0 38.7401 11.1632 49.8938 25.047 49.8938C38.9307 49.8938 50 38.7401 50 25.0342C50 11.3285 38.7429 0.0803223 24.953 0.0803223ZM24.4841 35.3373C24.4841 35.9043 24.015 36.377 23.4521 36.377H21.2008C20.6379 36.377 20.1689 35.9043 20.1689 35.3373V19.552C20.1689 18.9848 20.6379 18.5122 21.2008 18.5122H23.4521C24.015 18.5122 24.4841 18.9848 24.4841 19.552V35.3373ZM29.5498 36.8497C29.5498 37.4167 29.0807 37.8895 28.5178 37.8895H26.2665C25.7036 37.8895 25.2346 37.4167 25.2346 36.8497V18.0396C25.2346 17.4725 25.7036 16.9999 26.2665 16.9999H28.5178C29.0807 16.9999 29.5498 17.4725 29.5498 18.0396V36.8497ZM34.6155 34.0139C34.6155 34.5812 34.1464 35.0536 33.5835 35.0536H31.3322C30.7693 35.0536 30.3002 34.5812 30.3002 34.0139V21.0643C30.3002 20.4972 30.7693 20.0246 31.3322 20.0246H33.5835C34.1464 20.0246 34.6155 20.4972 34.6155 21.0643V34.0139Z" fill="url(#paint0_linear_891_1217)" fill-opacity="0.4"/>
</g>
<defs>
<linearGradient id="paint0_linear_891_1217" x1="25" y1="0.0803223" x2="25" y2="49.8938" gradientUnits="userSpaceOnUse">
<stop stop-color="#00E0FF"/>
<stop offset="1" stop-color="#00E0FF" stop-opacity="0"/>
</linearGradient>
<clipPath id="clip0_891_1217">
<rect width="50" height="50" fill="white"/>
</clipPath>
</defs>
</svg>

<svg xmlns="http://www.w3.org/2000/svg" width="50" height="50" fill="none"><g clip-path="url(#a)"><path fill="#FF005C" d="M24.953.08c-1.876 0-3.752.19-5.628.662v31.004c0 .661-.563 1.134-1.126 1.134h-2.252a.844.844 0 0 1-.844-.851V2.065C6.191 5.846 0 14.731 0 24.94c0 13.8 11.163 24.954 25.047 24.954S50 38.74 50 25.034 38.743.08 24.953.08m-.469 35.257c0 .567-.469 1.04-1.032 1.04h-2.251a1.045 1.045 0 0 1-1.032-1.04V19.552c0-.567.469-1.04 1.032-1.04h2.251c.563 0 1.032.473 1.032 1.04zm5.066 1.513c0 .567-.47 1.04-1.032 1.04h-2.251a1.045 1.045 0 0 1-1.032-1.04V18.04c0-.567.469-1.04 1.032-1.04h2.25c.564 0 1.033.473 1.033 1.04zm5.065-2.836c0 .567-.469 1.04-1.032 1.04h-2.25a1.045 1.045 0 0 1-1.033-1.04v-12.95c0-.567.47-1.04 1.032-1.04h2.252c.562 0 1.031.473 1.031 1.04z"/><path fill="url(#b)" fill-opacity=".4" d="M24.953.08c-1.876 0-3.752.19-5.628.662v31.004c0 .661-.563 1.134-1.126 1.134h-2.252a.844.844 0 0 1-.844-.851V2.065C6.191 5.846 0 14.731 0 24.94c0 13.8 11.163 24.954 25.047 24.954S50 38.74 50 25.034 38.743.08 24.953.08m-.469 35.257c0 .567-.469 1.04-1.032 1.04h-2.251a1.045 1.045 0 0 1-1.032-1.04V19.552c0-.567.469-1.04 1.032-1.04h2.251c.563 0 1.032.473 1.032 1.04zm5.066 1.513c0 .567-.47 1.04-1.032 1.04h-2.251a1.045 1.045 0 0 1-1.032-1.04V18.04c0-.567.469-1.04 1.032-1.04h2.25c.564 0 1.033.473 1.033 1.04zm5.065-2.836c0 .567-.469 1.04-1.032 1.04h-2.25a1.045 1.045 0 0 1-1.033-1.04v-12.95c0-.567.47-1.04 1.032-1.04h2.252c.562 0 1.031.473 1.031 1.04z"/></g><defs><linearGradient id="b" x1="25" x2="25" y1=".08" y2="49.894" gradientUnits="userSpaceOnUse"><stop stop-color="#00E0FF"/><stop offset="1" stop-color="#00E0FF" stop-opacity="0"/></linearGradient><clipPath id="a"><path fill="#fff" d="M0 0h50v50H0z"/></clipPath></defs></svg>
